assets/img/mac.svg

<?xml version="1.0" encoding="UTF-8" standalone="no"?>
<svg width="26px" height="30px" viewBox="0 0 26 30" version="1.1" xmlns="http://www.w3.org/2000/svg" xmlns:xlink="http://www.w3.org/1999/xlink" xmlns:sketch="http://www.bohemiancoding.com/sketch/ns">
    <!-- Generator: Sketch 3.2 (9961) - http://www.bohemiancoding.com/sketch -->
    <title>apple</title>
    <desc>Created with Sketch.</desc>
    <defs></defs>
    <g id="Page-1" stroke="none" stroke-width="1" fill="none" fill-rule="evenodd" sketch:type="MSPage">
        <g id="apple" sketch:type="MSLayerGroup" fill="#D3D7D9">
            <g id="layer1" sketch:type="MSShapeGroup">
                <path d="M7.944914,29.25634 C6.8390551,28.886518 5.6591215,27.868953 4.4359284,26.230221 C2.5515947,23.705749 1.440183,21.110771 1.0153406,18.243668 C0.8732614,17.284828 0.8180213,15.439831 0.9059729,14.590825 C1.1296397,12.431743 1.8536092,10.73156 3.1239544,9.382079 C4.2277888,8.2094806 5.6402783,7.4627253 7.224911,7.2139849 C8.361658,7.0355492 9.418644,7.0637149 10.329678,7.2967179 C10.553184,7.3538809 11.182989,7.5796811 11.729245,7.7984963 C12.2755,8.017311 12.851525,8.2240259 13.009299,8.2578624 C13.446119,8.3515434 13.988926,8.2883814 14.588402,8.0741146 C14.876363,7.9711903 15.418166,7.7777694 15.792411,7.6442901 C16.835095,7.2724021 17.335963,7.1824249 18.549512,7.1489977 C19.378006,7.1261757 19.708092,7.1389217 20.174754,7.2117517 C21.758304,7.4588893 23.059104,8.122998 24.210661,9.2722375 C24.525718,9.5866615 24.783492,9.8780365 24.783492,9.9197385 C24.783492,9.9614385 24.441727,10.3287195 24.024015,10.7359125 C23.110293,11.6266255 22.858667,11.9181725 22.471762,12.5344405 C21.891761,13.4582765 21.635082,14.3791415 21.630464,15.5526925 C21.626264,16.6325945 21.807993,17.4401335 22.254197,18.3235975 C22.789202,19.3828825 23.849363,20.4262105 25.132647,21.1563455 C25.348621,21.2792255 25.535514,21.4063075 25.547963,21.4387505 C25.637273,21.6714855 24.692036,23.8063235 24.013445,24.9044985 C22.961548,26.6067995 21.558383,28.1241615 20.3798,28.8338645 C19.774557,29.1983215 19.417023,29.3137345 18.805298,29.3421145 C18.140965,29.3729345 17.753298,29.2874845 16.444133,28.8216755 C15.887287,28.6235455 15.275823,28.4236505 15.085324,28.3774655 C13.831785,28.0735545 12.842386,28.1517055 11.388584,28.6694635 C10.974601,28.8168995 10.396099,29.0229295 10.103023,29.1273085 C9.621249,29.2988915 9.50629,29.3188745 8.904073,29.3357195 C8.363331,29.3508495 8.18284,29.3359325 7.944914,29.2563395 L7.944914,29.25634 Z M13.359548,7.6100911 C13.216331,7.5860881 13.072457,7.5396341 13.039828,7.5068627 C13.000998,7.4678587 12.982248,7.1675989 12.985548,6.637579 C12.991448,5.6871552 13.079618,5.2845795 13.455522,4.4910389 C13.775639,3.8152656 14.16109,3.2700887 14.763438,2.6411405 C15.873748,1.4817972 17.011758,0.8631373 18.463473,0.6296788 C19.02468,0.5394278 19.028531,0.5449238 19.028531,1.4360307 C19.028531,2.4152725 18.81445,3.360956 18.413291,4.1538038 C17.969725,5.030465 16.994209,6.1466721 16.190141,6.697583 C15.650989,7.0669862 14.901893,7.4177477 14.357072,7.5559119 C13.895478,7.6729699 13.774052,7.6795652 13.359544,7.6100909 L13.359548,7.6100911 Z" id="path3246"></path>
            </g>
        </g>
    </g>
</svg>

<svg width="26" height="30" xmlns="http://www.w3.org/2000/svg">
  <path d="M7.945 29.256c-1.106-.37-2.286-1.387-3.51-3.026-1.883-2.524-2.995-5.12-3.42-7.986-.142-.96-.197-2.804-.109-3.653.224-2.16.948-3.86 2.218-5.209a7.083 7.083 0 0 1 4.1-2.168c1.138-.178 2.195-.15 3.106.083.223.057.853.283 1.4.501.545.22 1.122.426 1.28.46.436.094.979.03 1.578-.184l1.204-.43c1.043-.372 1.544-.462 2.758-.495.828-.023 1.158-.01 1.625.063 1.583.247 2.884.911 4.036 2.06.315.315.572.606.572.648 0 .041-.341.409-.759.816-.914.89-1.165 1.182-1.552 1.798-.58.924-.837 1.845-.842 3.019-.004 1.08.178 1.887.624 2.77.535 1.06 1.595 2.103 2.879 2.833.216.123.403.25.415.283.09.232-.856 2.367-1.535 3.465-1.051 1.703-2.455 3.22-3.633 3.93-.605.364-.963.48-1.575.508-.664.03-1.052-.055-2.36-.52a21.318 21.318 0 0 0-1.36-.445c-1.253-.303-2.243-.225-3.696.292l-1.286.458c-.482.172-.597.192-1.199.209-.54.015-.721 0-.96-.08zM13.36 7.61c-.144-.024-.288-.07-.32-.103-.039-.04-.058-.34-.054-.87.005-.95.094-1.352.47-2.146.32-.676.705-1.22 1.307-1.85 1.11-1.16 2.249-1.778 3.7-2.011.562-.09.566-.085.566.806 0 .98-.215 1.925-.616 2.718-.443.876-1.419 1.993-2.223 2.544-.539.369-1.288.72-1.833.858-.462.117-.583.124-.997.054z" fill="#D3D7D9" fill-rule="evenodd"/>
</svg>
